X: 4804
T: Boys Of The Lough, The
R: reel
M: 4/4
K: Dmajor
|:AF F2 AFAB|defd efdB|AF D2 ABAF|EDEF E2 dB|
AD D2 A2AB|defd ecdB|AF F2 dBAF|1 EDEF D2dB:|2 GFEG FDD2||
dfaf gfef|defd efdB|AF F2 ABAF|EDEF EGFA|
dfaf gfef|defd efdB|AF F2 dFAF|GFEG FDDA||
dfaf gfef|defd efdB|AF F2 ABde|fdgf e2fg|
afge fdec|dcBA BcdB|AF F2 dFAF|EDEF D4||

